img/logo.svg

<svg width="190" height="35" viewBox="0 0 190 35" fill="none" xmlns="http://www.w3.org/2000/svg">
<path d="M55.28 20.52C55.28 20.872 55.28 21.176 55.28 21.432C55.296 21.688 55.32 21.96 55.352 22.248L57.008 22.488V23.328C56.816 23.424 56.552 23.52 56.216 23.616C55.896 23.712 55.552 23.808 55.184 23.904C54.832 23.984 54.48 24.048 54.128 24.096C53.776 24.16 53.464 24.208 53.192 24.24H52.376C52.216 23.872 52.12 23.504 52.088 23.136C52.056 22.768 52.032 22.32 52.016 21.792H51.896C51.816 22.112 51.68 22.424 51.488 22.728C51.296 23.016 51.048 23.28 50.744 23.52C50.456 23.744 50.112 23.928 49.712 24.072C49.312 24.216 48.864 24.288 48.368 24.288C47.84 24.288 47.352 24.208 46.904 24.048C46.456 23.888 46.064 23.664 45.728 23.376C45.392 23.088 45.128 22.744 44.936 22.344C44.744 21.928 44.648 21.464 44.648 20.952C44.648 20.232 44.784 19.64 45.056 19.176C45.328 18.712 45.752 18.336 46.328 18.048C46.92 17.744 47.672 17.52 48.584 17.376C49.512 17.232 50.632 17.128 51.944 17.064C52.072 15.688 52.016 14.68 51.776 14.04C51.536 13.4 51.016 13.08 50.216 13.08C49.72 13.08 49.264 13.16 48.848 13.32L47.72 16.2H46.664C46.536 16.008 46.408 15.792 46.28 15.552C46.168 15.296 46.056 15.032 45.944 14.76C45.848 14.472 45.76 14.184 45.68 13.896C45.616 13.608 45.568 13.328 45.536 13.056C46.144 12.64 46.928 12.312 47.888 12.072C48.848 11.832 49.864 11.712 50.936 11.712C51.848 11.712 52.592 11.816 53.168 12.024C53.744 12.216 54.192 12.488 54.512 12.84C54.848 13.176 55.08 13.576 55.208 14.04C55.336 14.504 55.4 15 55.4 15.528C55.4 16.488 55.376 17.36 55.328 18.144C55.296 18.912 55.28 19.704 55.28 20.52ZM49.88 22.368C50.216 22.368 50.504 22.304 50.744 22.176C50.984 22.048 51.184 21.896 51.344 21.72C51.52 21.544 51.648 21.352 51.728 21.144C51.824 20.936 51.896 20.752 51.944 20.592V18.192C51.192 18.208 50.576 18.256 50.096 18.336C49.616 18.416 49.24 18.552 48.968 18.744C48.696 18.92 48.504 19.152 48.392 19.44C48.296 19.712 48.248 20.048 48.248 20.448C48.248 21.056 48.392 21.528 48.68 21.864C48.968 22.2 49.368 22.368 49.88 22.368ZM64.4874 28.8H57.8634V27.864C58.4074 27.608 58.9354 27.416 59.4474 27.288V13.704L57.8634 13.512V12.576C58.1194 12.464 58.4314 12.36 58.7994 12.264C59.1834 12.168 59.5754 12.088 59.9754 12.024C60.3754 11.944 60.7594 11.88 61.1274 11.832C61.5114 11.784 61.8314 11.744 62.0874 11.712H62.9034V14.4H62.9274C63.1994 13.632 63.6234 12.992 64.1994 12.48C64.7914 11.968 65.6074 11.712 66.6474 11.712C67.3514 11.712 67.9834 11.832 68.5434 12.072C69.1194 12.296 69.5994 12.656 69.9834 13.152C70.3834 13.632 70.6874 14.256 70.8954 15.024C71.1194 15.776 71.2314 16.68 71.2314 17.736C71.2314 18.744 71.0874 19.656 70.7994 20.472C70.5274 21.288 70.1274 21.976 69.5994 22.536C69.0874 23.096 68.4554 23.528 67.7034 23.832C66.9674 24.136 66.1274 24.288 65.1834 24.288C64.6394 24.288 64.2074 24.248 63.8874 24.168C63.5834 24.104 63.2554 23.984 62.9034 23.808V27.288C63.1594 27.32 63.4154 27.376 63.6714 27.456C63.9274 27.552 64.1994 27.688 64.4874 27.864V28.8ZM65.2554 13.632C64.7114 13.632 64.2234 13.824 63.7914 14.208C63.3754 14.592 63.0794 15.184 62.9034 15.984V22.368C63.1594 22.56 63.4314 22.704 63.7194 22.8C64.0074 22.88 64.3834 22.92 64.8474 22.92C65.7594 22.92 66.4314 22.48 66.8634 21.6C67.2954 20.72 67.5114 19.432 67.5114 17.736C67.5114 16.424 67.3434 15.416 67.0074 14.712C66.6874 13.992 66.1034 13.632 65.2554 13.632ZM79.1124 28.8H72.4884V27.864C73.0324 27.608 73.5604 27.416 74.0724 27.288V13.704L72.4884 13.512V12.576C72.7444 12.464 73.0564 12.36 73.4244 12.264C73.8084 12.168 74.2004 12.088 74.6004 12.024C75.0004 11.944 75.3844 11.88 75.7524 11.832C76.1364 11.784 76.4564 11.744 76.7124 11.712H77.5284V14.4H77.5524C77.8244 13.632 78.2484 12.992 78.8244 12.48C79.4164 11.968 80.2324 11.712 81.2724 11.712C81.9764 11.712 82.6084 11.832 83.1684 12.072C83.7444 12.296 84.2244 12.656 84.6084 13.152C85.0084 13.632 85.3124 14.256 85.5204 15.024C85.7444 15.776 85.8564 16.68 85.8564 17.736C85.8564 18.744 85.7124 19.656 85.4244 20.472C85.1524 21.288 84.7524 21.976 84.2244 22.536C83.7124 23.096 83.0804 23.528 82.3284 23.832C81.5924 24.136 80.7524 24.288 79.8084 24.288C79.2644 24.288 78.8324 24.248 78.5124 24.168C78.2084 24.104 77.8804 23.984 77.5284 23.808V27.288C77.7844 27.32 78.0404 27.376 78.2964 27.456C78.5524 27.552 78.8244 27.688 79.1124 27.864V28.8ZM79.8804 13.632C79.3364 13.632 78.8484 13.824 78.4164 14.208C78.0004 14.592 77.7044 15.184 77.5284 15.984V22.368C77.7844 22.56 78.0564 22.704 78.3444 22.8C78.6324 22.88 79.0084 22.92 79.4724 22.92C80.3844 22.92 81.0564 22.48 81.4884 21.6C81.9204 20.72 82.1364 19.432 82.1364 17.736C82.1364 16.424 81.9684 15.416 81.6324 14.712C81.3124 13.992 80.7284 13.632 79.8804 13.632ZM88.1214 22.296C88.1214 21.72 88.3054 21.256 88.6734 20.904C89.0414 20.552 89.5294 20.376 90.1374 20.376C90.7454 20.376 91.2414 20.552 91.6254 20.904C92.0094 21.256 92.2014 21.72 92.2014 22.296C92.2014 22.872 92.0094 23.336 91.6254 23.688C91.2414 24.024 90.7454 24.192 90.1374 24.192C89.5294 24.192 89.0414 24.024 88.6734 23.688C88.3054 23.336 88.1214 22.872 88.1214 22.296ZM104.655 22.056C104.543 22.376 104.359 22.672 104.103 22.944C103.847 23.2 103.535 23.432 103.167 23.64C102.815 23.848 102.407 24.008 101.943 24.12C101.495 24.232 101.023 24.288 100.527 24.288C99.4709 24.288 98.5589 24.144 97.7909 23.856C97.0389 23.552 96.4149 23.128 95.9189 22.584C95.4229 22.024 95.0549 21.36 94.8149 20.592C94.5749 19.808 94.4549 18.944 94.4549 18C94.4549 15.968 95.0069 14.416 96.1109 13.344C97.2309 12.256 98.8149 11.712 100.863 11.712C101.647 11.712 102.367 11.8 103.023 11.976C103.679 12.136 104.223 12.328 104.655 12.552C104.623 12.824 104.575 13.128 104.511 13.464C104.463 13.784 104.399 14.112 104.319 14.448C104.255 14.768 104.175 15.088 104.079 15.408C103.983 15.712 103.887 15.968 103.791 16.176H102.615L101.607 13.32C101.495 13.24 101.375 13.184 101.247 13.152C101.119 13.104 100.927 13.08 100.671 13.08C100.255 13.08 99.8949 13.16 99.5909 13.32C99.2869 13.464 99.0229 13.72 98.7989 14.088C98.5909 14.456 98.4309 14.944 98.3189 15.552C98.2229 16.16 98.1749 16.912 98.1749 17.808C98.1749 18.464 98.2469 19.072 98.3909 19.632C98.5349 20.176 98.7509 20.656 99.0389 21.072C99.3429 21.472 99.7189 21.792 100.167 22.032C100.615 22.256 101.143 22.368 101.751 22.368C102.311 22.368 102.799 22.288 103.215 22.128C103.631 21.968 103.983 21.776 104.271 21.552L104.655 22.056ZM112.296 14.76C112.104 14.856 111.88 15.016 111.624 15.24C111.368 15.464 111.136 15.832 110.928 16.344V22.488C111.248 22.52 111.568 22.584 111.888 22.68C112.208 22.76 112.528 22.888 112.848 23.064V24H105.888V23.064C106.176 22.904 106.448 22.784 106.704 22.704C106.96 22.624 107.216 22.552 107.472 22.488V13.704L105.888 13.512V12.576C106.144 12.464 106.456 12.36 106.824 12.264C107.208 12.168 107.6 12.088 108 12.024C108.4 11.944 108.784 11.88 109.152 11.832C109.536 11.784 109.856 11.744 110.112 11.712H110.928V14.904H111.024C111.152 14.552 111.336 14.184 111.576 13.8C111.832 13.416 112.128 13.064 112.464 12.744C112.8 12.424 113.168 12.168 113.568 11.976C113.968 11.784 114.384 11.696 114.816 11.712C114.992 11.936 115.144 12.256 115.272 12.672C115.4 13.072 115.504 13.456 115.584 13.824V14.76H112.296ZM127.336 21.984C127.208 22.256 127 22.536 126.712 22.824C126.44 23.096 126.096 23.344 125.68 23.568C125.28 23.776 124.808 23.944 124.264 24.072C123.736 24.216 123.16 24.288 122.536 24.288C121.544 24.288 120.664 24.144 119.896 23.856C119.128 23.552 118.488 23.128 117.976 22.584C117.464 22.024 117.072 21.36 116.8 20.592C116.544 19.824 116.416 18.96 116.416 18C116.416 15.952 116.952 14.392 118.024 13.32C119.096 12.248 120.584 11.712 122.488 11.712C123.304 11.712 124.064 11.824 124.768 12.048C125.488 12.272 126.08 12.64 126.544 13.152C127.024 13.664 127.352 14.336 127.528 15.168C127.72 16 127.712 17.016 127.504 18.216H120.136C120.152 19.48 120.472 20.488 121.096 21.24C121.736 21.992 122.672 22.368 123.904 22.368C124.432 22.368 124.976 22.288 125.536 22.128C126.112 21.968 126.56 21.76 126.88 21.504L127.336 21.984ZM122.392 13.08C122.072 13.08 121.784 13.136 121.528 13.248C121.288 13.36 121.072 13.568 120.88 13.872C120.704 14.16 120.56 14.56 120.448 15.072C120.336 15.568 120.256 16.2 120.208 16.968H124.072C124.184 15.72 124.112 14.76 123.856 14.088C123.6 13.416 123.112 13.08 122.392 13.08ZM139.843 20.52C139.843 20.872 139.843 21.176 139.843 21.432C139.859 21.688 139.883 21.96 139.915 22.248L141.571 22.488V23.328C141.379 23.424 141.115 23.52 140.779 23.616C140.459 23.712 140.115 23.808 139.747 23.904C139.395 23.984 139.043 24.048 138.691 24.096C138.339 24.16 138.027 24.208 137.755 24.24H136.939C136.779 23.872 136.683 23.504 136.651 23.136C136.619 22.768 136.595 22.32 136.579 21.792H136.459C136.379 22.112 136.243 22.424 136.051 22.728C135.859 23.016 135.611 23.28 135.307 23.52C135.019 23.744 134.675 23.928 134.275 24.072C133.875 24.216 133.427 24.288 132.931 24.288C132.403 24.288 131.915 24.208 131.467 24.048C131.019 23.888 130.627 23.664 130.291 23.376C129.955 23.088 129.691 22.744 129.499 22.344C129.307 21.928 129.211 21.464 129.211 20.952C129.211 20.232 129.347 19.64 129.619 19.176C129.891 18.712 130.315 18.336 130.891 18.048C131.483 17.744 132.235 17.52 133.147 17.376C134.075 17.232 135.195 17.128 136.507 17.064C136.635 15.688 136.579 14.68 136.339 14.04C136.099 13.4 135.579 13.08 134.779 13.08C134.283 13.08 133.827 13.16 133.411 13.32L132.283 16.2H131.227C131.099 16.008 130.971 15.792 130.843 15.552C130.731 15.296 130.619 15.032 130.507 14.76C130.411 14.472 130.323 14.184 130.243 13.896C130.178 13.608 130.131 13.328 130.099 13.056C130.707 12.64 131.491 12.312 132.451 12.072C133.411 11.832 134.427 11.712 135.499 11.712C136.411 11.712 137.155 11.816 137.731 12.024C138.307 12.216 138.755 12.488 139.075 12.84C139.411 13.176 139.643 13.576 139.771 14.04C139.899 14.504 139.963 15 139.963 15.528C139.963 16.488 139.939 17.36 139.891 18.144C139.859 18.912 139.843 19.704 139.843 20.52ZM134.443 22.368C134.779 22.368 135.067 22.304 135.307 22.176C135.547 22.048 135.747 21.896 135.907 21.72C136.083 21.544 136.211 21.352 136.291 21.144C136.387 20.936 136.459 20.752 136.507 20.592V18.192C135.755 18.208 135.139 18.256 134.659 18.336C134.179 18.416 133.803 18.552 133.531 18.744C133.259 18.92 133.067 19.152 132.955 19.44C132.859 19.712 132.811 20.048 132.811 20.448C132.811 21.056 132.955 21.528 133.243 21.864C133.531 22.2 133.931 22.368 134.443 22.368ZM142.114 12.576C142.722 12.192 143.362 11.92 144.034 11.76V9.816C144.162 9.72 144.474 9.584 144.97 9.408C145.482 9.216 146.05 9.064 146.674 8.952H147.49V12H150.658V13.512H147.49V19.728C147.49 20.72 147.61 21.408 147.85 21.792C148.106 22.176 148.522 22.368 149.098 22.368C149.386 22.368 149.706 22.352 150.058 22.32C150.426 22.272 150.762 22.192 151.066 22.08L151.234 22.872C151.09 23.016 150.874 23.168 150.586 23.328C150.314 23.488 149.994 23.64 149.626 23.784C149.274 23.928 148.882 24.048 148.45 24.144C148.034 24.24 147.594 24.288 147.13 24.288C146.09 24.288 145.314 24.016 144.802 23.472C144.29 22.928 144.034 22.048 144.034 20.832V13.512H142.114V12.576ZM158.876 24H152.252V23.064C152.492 22.936 152.74 22.832 152.996 22.752C153.252 22.656 153.532 22.568 153.836 22.488V13.704L152.252 13.512V12.576C152.492 12.48 152.788 12.384 153.14 12.288C153.508 12.192 153.892 12.112 154.292 12.048C154.692 11.968 155.084 11.904 155.468 11.856C155.852 11.792 156.188 11.744 156.476 11.712H157.292V22.488C157.612 22.568 157.9 22.656 158.156 22.752C158.412 22.832 158.652 22.936 158.876 23.064V24ZM153.428 8.064C153.428 7.504 153.62 7.064 154.004 6.744C154.388 6.424 154.884 6.264 155.492 6.264C156.1 6.264 156.596 6.424 156.98 6.744C157.364 7.064 157.556 7.504 157.556 8.064C157.556 8.608 157.364 9.04 156.98 9.36C156.596 9.68 156.1 9.84 155.492 9.84C154.884 9.84 154.388 9.68 154.004 9.36C153.62 9.04 153.428 8.608 153.428 8.064ZM160.221 18C160.221 17.024 160.365 16.152 160.653 15.384C160.957 14.6 161.381 13.936 161.925 13.392C162.485 12.848 163.157 12.432 163.941 12.144C164.725 11.856 165.613 11.712 166.605 11.712C167.725 11.712 168.685 11.872 169.485 12.192C170.301 12.496 170.965 12.928 171.477 13.488C172.005 14.032 172.389 14.696 172.629 15.48C172.869 16.248 172.989 17.088 172.989 18C172.989 18.976 172.845 19.856 172.557 20.64C172.269 21.408 171.845 22.064 171.285 22.608C170.741 23.152 170.069 23.568 169.269 23.856C168.485 24.144 167.597 24.288 166.605 24.288C165.517 24.288 164.573 24.136 163.773 23.832C162.973 23.512 162.309 23.08 161.781 22.536C161.253 21.976 160.861 21.312 160.605 20.544C160.349 19.76 160.221 18.912 160.221 18ZM163.941 18C163.941 18.72 163.981 19.384 164.061 19.992C164.157 20.584 164.317 21.088 164.541 21.504C164.765 21.92 165.069 22.248 165.453 22.488C165.837 22.712 166.333 22.824 166.941 22.824C167.293 22.824 167.613 22.744 167.901 22.584C168.189 22.408 168.437 22.136 168.645 21.768C168.853 21.384 169.005 20.888 169.101 20.28C169.213 19.656 169.269 18.896 169.269 18C169.269 17.264 169.221 16.6 169.125 16.008C169.045 15.416 168.893 14.912 168.669 14.496C168.461 14.08 168.173 13.76 167.805 13.536C167.437 13.296 166.973 13.176 166.413 13.176C165.997 13.176 165.637 13.264 165.333 13.44C165.029 13.6 164.773 13.872 164.565 14.256C164.357 14.624 164.197 15.12 164.085 15.744C163.989 16.352 163.941 17.104 163.941 18ZM188.895 24H182.535V23.064C182.743 22.952 182.943 22.856 183.135 22.776C183.343 22.68 183.583 22.584 183.855 22.488V16.848C183.855 15.84 183.711 15.056 183.423 14.496C183.135 13.92 182.623 13.632 181.887 13.632C181.279 13.632 180.751 13.832 180.303 14.232C179.871 14.616 179.543 15.144 179.319 15.816V22.488C179.575 22.552 179.799 22.632 179.991 22.728C180.199 22.808 180.415 22.92 180.639 23.064V24H174.279V23.064C174.679 22.856 175.207 22.664 175.863 22.488V13.704L174.279 13.512V12.576C174.487 12.48 174.759 12.392 175.095 12.312C175.431 12.216 175.791 12.128 176.175 12.048C176.575 11.968 176.975 11.904 177.375 11.856C177.791 11.792 178.167 11.744 178.503 11.712H179.319V14.184H179.343C179.679 13.512 180.183 12.936 180.855 12.456C181.527 11.96 182.343 11.712 183.303 11.712C183.927 11.712 184.487 11.792 184.983 11.952C185.479 12.096 185.895 12.36 186.231 12.744C186.583 13.128 186.847 13.648 187.023 14.304C187.215 14.944 187.311 15.76 187.311 16.752V22.488C187.951 22.6 188.479 22.792 188.895 23.064V24Z" fill="black"/>
<circle opacity="0.7" cx="14" cy="14" r="14" fill="#0056EC"/>
<circle opacity="0.7" cx="22" cy="21" r="14" fill="#C8DBFB"/>
</svg>

<svg width="190" height="35" fill="none" xmlns="http://www.w3.org/2000/svg">
  <path d="M55.28 20.52v.912c.016.256.04.528.072.816l1.656.24v.84a4.75 4.75 0 01-.792.288c-.32.096-.664.192-1.032.288-.352.08-.704.144-1.056.192-.352.064-.664.112-.936.144h-.816a3.525 3.525 0 01-.288-1.104 24.422 24.422 0 01-.072-1.344h-.12c-.08.32-.216.632-.408.936-.192.288-.44.552-.744.792a3.718 3.718 0 01-1.032.552c-.4.144-.848.216-1.344.216-.528 0-1.016-.08-1.464-.24a3.698 3.698 0 01-1.176-.672 3.126 3.126 0 01-.792-1.032 3.283 3.283 0 01-.288-1.392c0-.72.136-1.312.408-1.776.272-.464.696-.84 1.272-1.128.592-.304 1.344-.528 2.256-.672.928-.144 2.048-.248 3.36-.312.128-1.376.072-2.384-.168-3.024-.24-.64-.76-.96-1.56-.96-.496 0-.952.08-1.368.24L47.72 16.2h-1.056a7.72 7.72 0 01-.384-.648c-.112-.256-.224-.52-.336-.792a17.783 17.783 0 01-.264-.864 8.399 8.399 0 01-.144-.84c.608-.416 1.392-.744 2.352-.984s1.976-.36 3.048-.36c.912 0 1.656.104 2.232.312.576.192 1.024.464 1.344.816.336.336.568.736.696 1.2.128.464.192.96.192 1.488 0 .96-.024 1.832-.072 2.616-.032.768-.048 1.56-.048 2.376zm-5.4 1.848c.336 0 .624-.064.864-.192a2.2 2.2 0 00.6-.456c.176-.176.304-.368.384-.576.096-.208.168-.392.216-.552v-2.4c-.752.016-1.368.064-1.848.144-.48.08-.856.216-1.128.408a1.434 1.434 0 00-.576.696c-.096.272-.144.608-.144 1.008 0 .608.144 1.08.432 1.416.288.336.688.504 1.2.504zM64.487 28.8h-6.624v-.936a8.67 8.67 0 011.584-.576V13.704l-1.584-.192v-.936c.256-.112.568-.216.936-.312.384-.096.776-.176 1.176-.24.4-.08.784-.144 1.152-.192l.96-.12h.816V14.4h.024a4.551 4.551 0 011.272-1.92c.592-.512 1.408-.768 2.448-.768.704 0 1.336.12 1.896.36a3.308 3.308 0 011.44 1.08c.4.48.704 1.104.912 1.872.224.752.336 1.656.336 2.712 0 1.008-.144 1.92-.432 2.736-.272.816-.672 1.504-1.2 2.064a5.133 5.133 0 01-1.896 1.296c-.736.304-1.576.456-2.52.456-.544 0-.976-.04-1.296-.12a4.128 4.128 0 01-.984-.36v3.48c.256.032.512.088.768.168.256.096.528.232.816.408v.936zm.768-15.168c-.544 0-1.032.192-1.464.576-.416.384-.712.976-.888 1.776v6.384c.256.192.528.336.816.432.288.08.664.12 1.128.12.912 0 1.584-.44 2.016-1.32.432-.88.648-2.168.648-3.864 0-1.312-.168-2.32-.504-3.024-.32-.72-.904-1.08-1.752-1.08zM79.112 28.8h-6.624v-.936a8.67 8.67 0 011.584-.576V13.704l-1.584-.192v-.936c.256-.112.568-.216.936-.312.384-.096.776-.176 1.176-.24.4-.08.784-.144 1.152-.192l.96-.12h.816V14.4h.024a4.551 4.551 0 011.272-1.92c.592-.512 1.408-.768 2.448-.768.704 0 1.336.12 1.896.36a3.308 3.308 0 011.44 1.08c.4.48.704 1.104.912 1.872.224.752.336 1.656.336 2.712 0 1.008-.144 1.92-.432 2.736-.272.816-.672 1.504-1.2 2.064a5.133 5.133 0 01-1.896 1.296c-.736.304-1.576.456-2.52.456-.544 0-.976-.04-1.296-.12a4.128 4.128 0 01-.984-.36v3.48c.256.032.512.088.768.168.256.096.528.232.816.408v.936zm.768-15.168c-.544 0-1.032.192-1.464.576-.416.384-.712.976-.888 1.776v6.384c.256.192.528.336.816.432.288.08.664.12 1.128.12.912 0 1.584-.44 2.016-1.32.432-.88.648-2.168.648-3.864 0-1.312-.168-2.32-.504-3.024-.32-.72-.904-1.08-1.752-1.08zm8.241 8.664c0-.576.184-1.04.552-1.392.368-.352.856-.528 1.464-.528s1.104.176 1.488.528c.384.352.576.816.576 1.392s-.192 1.04-.576 1.392c-.384.336-.88.504-1.488.504s-1.096-.168-1.464-.504c-.368-.352-.552-.816-.552-1.392zm16.534-.24c-.112.32-.296.616-.552.888a4.318 4.318 0 01-.936.696 4.44 4.44 0 01-1.224.48c-.448.112-.92.168-1.416.168-1.056 0-1.968-.144-2.736-.432-.752-.304-1.376-.728-1.872-1.272a5.383 5.383 0 01-1.104-1.992c-.24-.784-.36-1.648-.36-2.592 0-2.032.552-3.584 1.656-4.656 1.12-1.088 2.704-1.632 4.752-1.632.784 0 1.504.088 2.16.264.656.16 1.2.352 1.632.576-.032.272-.08.576-.144.912-.048.32-.112.648-.192.984-.064.32-.144.64-.24.96-.096.304-.192.56-.288.768h-1.176l-1.008-2.856a1.056 1.056 0 00-.36-.168c-.128-.048-.32-.072-.576-.072-.416 0-.776.08-1.08.24-.304.144-.568.4-.792.768-.208.368-.368.856-.48 1.464-.096.608-.144 1.36-.144 2.256 0 .656.072 1.264.216 1.824.144.544.36 1.024.648 1.44.304.4.68.72 1.128.96.448.224.976.336 1.584.336.56 0 1.048-.08 1.464-.24.416-.16.768-.352 1.056-.576l.384.504zm7.641-7.296a3.363 3.363 0 00-.672.48c-.256.224-.488.592-.696 1.104v6.144c.32.032.64.096.96.192.32.08.64.208.96.384V24h-6.96v-.936c.288-.16.56-.28.816-.36.256-.08.512-.152.768-.216v-8.784l-1.584-.192v-.936c.256-.112.568-.216.936-.312.384-.096.776-.176 1.176-.24.4-.08.784-.144 1.152-.192l.96-.12h.816v3.192h.096c.128-.352.312-.72.552-1.104.256-.384.552-.736.888-1.056.336-.32.704-.576 1.104-.768.4-.192.816-.28 1.248-.264.176.224.328.544.456.96.128.4.232.784.312 1.152v.936h-3.288zm15.04 7.224c-.128.272-.336.552-.624.84-.272.272-.616.52-1.032.744-.4.208-.872.376-1.416.504a6.552 6.552 0 01-1.728.216c-.992 0-1.872-.144-2.64-.432-.768-.304-1.408-.728-1.92-1.272a5.766 5.766 0 01-1.176-1.992c-.256-.768-.384-1.632-.384-2.592 0-2.048.536-3.608 1.608-4.68 1.072-1.072 2.56-1.608 4.464-1.608a7.48 7.48 0 012.28.336c.72.224 1.312.592 1.776 1.104.48.512.808 1.184.984 2.016.192.832.184 1.848-.024 3.048h-7.368c.016 1.264.336 2.272.96 3.024.64.752 1.576 1.128 2.808 1.128.528 0 1.072-.08 1.632-.24.576-.16 1.024-.368 1.344-.624l.456.48zm-4.944-8.904c-.32 0-.608.056-.864.168-.24.112-.456.32-.648.624-.176.288-.32.688-.432 1.2-.112.496-.192 1.128-.24 1.896h3.864c.112-1.248.04-2.208-.216-2.88-.256-.672-.744-1.008-1.464-1.008zm17.451 7.44v.912c.016.256.04.528.072.816l1.656.24v.84a4.75 4.75 0 01-.792.288c-.32.096-.664.192-1.032.288-.352.08-.704.144-1.056.192-.352.064-.664.112-.936.144h-.816a3.525 3.525 0 01-.288-1.104 24.422 24.422 0 01-.072-1.344h-.12c-.08.32-.216.632-.408.936-.192.288-.44.552-.744.792a3.718 3.718 0 01-1.032.552c-.4.144-.848.216-1.344.216-.528 0-1.016-.08-1.464-.24a3.698 3.698 0 01-1.176-.672 3.126 3.126 0 01-.792-1.032 3.283 3.283 0 01-.288-1.392c0-.72.136-1.312.408-1.776.272-.464.696-.84 1.272-1.128.592-.304 1.344-.528 2.256-.672.928-.144 2.048-.248 3.36-.312.128-1.376.072-2.384-.168-3.024-.24-.64-.76-.96-1.56-.96-.496 0-.952.08-1.368.24l-1.128 2.88h-1.056a7.72 7.72 0 01-.384-.648c-.112-.256-.224-.52-.336-.792a17.783 17.783 0 01-.264-.864 8.121 8.121 0 01-.144-.84c.608-.416 1.392-.744 2.352-.984s1.976-.36 3.048-.36c.912 0 1.656.104 2.232.312.576.192 1.024.464 1.344.816.336.336.568.736.696 1.2.128.464.192.96.192 1.488 0 .96-.024 1.832-.072 2.616-.032.768-.048 1.56-.048 2.376zm-5.4 1.848c.336 0 .624-.064.864-.192a2.2 2.2 0 00.6-.456c.176-.176.304-.368.384-.576.096-.208.168-.392.216-.552v-2.4c-.752.016-1.368.064-1.848.144-.48.08-.856.216-1.128.408a1.434 1.434 0 00-.576.696c-.096.272-.144.608-.144 1.008 0 .608.144 1.08.432 1.416.288.336.688.504 1.2.504zm7.671-9.792a6.318 6.318 0 011.92-.816V9.816c.128-.096.44-.232.936-.408a9.77 9.77 0 011.704-.456h.816V12h3.168v1.512h-3.168v6.216c0 .992.12 1.68.36 2.064.256.384.672.576 1.248.576.288 0 .608-.016.96-.048a4.652 4.652 0 001.008-.24l.168.792c-.144.144-.36.296-.648.456-.272.16-.592.312-.96.456a7.276 7.276 0 01-1.176.36 5.856 5.856 0 01-1.32.144c-1.04 0-1.816-.272-2.328-.816-.512-.544-.768-1.424-.768-2.64v-7.32h-1.92v-.936zM158.876 24h-6.624v-.936a4.31 4.31 0 01.744-.312 8.71 8.71 0 01.84-.264v-8.784l-1.584-.192v-.936c.24-.096.536-.192.888-.288.368-.096.752-.176 1.152-.24.4-.08.792-.144 1.176-.192.384-.064.72-.112 1.008-.144h.816v10.776c.32.08.608.168.864.264.256.08.496.184.72.312V24zm-5.448-15.936c0-.56.192-1 .576-1.32.384-.32.88-.48 1.488-.48s1.104.16 1.488.48c.384.32.576.76.576 1.32 0 .544-.192.976-.576 1.296-.384.32-.88.48-1.488.48s-1.104-.16-1.488-.48c-.384-.32-.576-.752-.576-1.296zM160.221 18c0-.976.144-1.848.432-2.616a5.677 5.677 0 011.272-1.992 5.645 5.645 0 012.016-1.248c.784-.288 1.672-.432 2.664-.432 1.12 0 2.08.16 2.88.48.816.304 1.48.736 1.992 1.296.528.544.912 1.208 1.152 1.992.24.768.36 1.608.36 2.52 0 .976-.144 1.856-.432 2.64a5.294 5.294 0 01-1.272 1.968c-.544.544-1.216.96-2.016 1.248-.784.288-1.672.432-2.664.432-1.088 0-2.032-.152-2.832-.456-.8-.32-1.464-.752-1.992-1.296a5.31 5.31 0 01-1.176-1.992 8.15 8.15 0 01-.384-2.544zm3.72 0c0 .72.04 1.384.12 1.992.096.592.256 1.096.48 1.512.224.416.528.744.912.984.384.224.88.336 1.488.336.352 0 .672-.08.96-.24.288-.176.536-.448.744-.816.208-.384.36-.88.456-1.488.112-.624.168-1.384.168-2.28 0-.736-.048-1.4-.144-1.992-.08-.592-.232-1.096-.456-1.512a2.293 2.293 0 00-.864-.96c-.368-.24-.832-.36-1.392-.36-.416 0-.776.088-1.08.264-.304.16-.56.432-.768.816-.208.368-.368.864-.48 1.488-.096.608-.144 1.36-.144 2.256zm24.954 6h-6.36v-.936c.208-.112.408-.208.6-.288a8.41 8.41 0 01.72-.288v-5.64c0-1.008-.144-1.792-.432-2.352-.288-.576-.8-.864-1.536-.864-.608 0-1.136.2-1.584.6-.432.384-.76.912-.984 1.584v6.672c.256.064.48.144.672.24.208.08.424.192.648.336V24h-6.36v-.936c.4-.208.928-.4 1.584-.576v-8.784l-1.584-.192v-.936c.208-.096.48-.184.816-.264.336-.096.696-.184 1.08-.264.4-.08.8-.144 1.2-.192.416-.064.792-.112 1.128-.144h.816v2.472h.024c.336-.672.84-1.248 1.512-1.728.672-.496 1.488-.744 2.448-.744.624 0 1.184.08 1.68.24a2.58 2.58 0 011.248.792c.352.384.616.904.792 1.56.192.64.288 1.456.288 2.448v5.736c.64.112 1.168.304 1.584.576V24z" fill="#000"/>
  <circle opacity=".7" cx="14" cy="14" r="14" fill="#0056EC"/>
  <circle opacity=".7" cx="22" cy="21" r="14" fill="#C8DBFB"/>
</svg>
